X: 1
T: Analysis
C: Joe
M: 2/4
L: 1/8
K: C
 C A, D C | C A, D C |
 C D E F | F E D C|
 C A, D C | C A, D C |
 F E D C| C D E F |




